public/svgs/duotone/circle-pause.svg

<svg xmlns="http://www.w3.org/2000/svg" viewBox="0 0 512 512"><!-- Font Awesome Pro 6.0.0-alpha2 by @fontawesome - https://fontawesome.com License - https://fontawesome.com/license (Commercial License) --><defs><style>.fa-secondary{opacity:.4}</style></defs><path d="M256 16C123.451 16 16 123.451 16 256S123.451 496 256 496S496 388.549 496 256S388.549 16 256 16ZM224 192V320C224 337.673 209.673 352 192 352H192C174.327 352 160 337.673 160 320V192C160 174.327 174.327 160 192 160H192C209.673 160 224 174.327 224 192ZM352 192V320C352 337.673 337.673 352 320 352H320C302.327 352 288 337.673 288 320V192C288 174.327 302.327 160 320 160H320C337.673 160 352 174.327 352 192Z" class="fa-secondary"/><path d="M192 160C174.326 160 160 174.326 160 192V320C160 337.672 174.326 352 192 352S224 337.672 224 320V192C224 174.326 209.674 160 192 160ZM320 160C302.326 160 288 174.326 288 192V320C288 337.672 302.326 352 320 352S352 337.672 352 320V192C352 174.326 337.674 160 320 160Z" class="fa-primary"/></svg>

<svg xmlns="http://www.w3.org/2000/svg" viewBox="0 0 512 512"><!--! Font Awesome Pro 6.5.1 by @fontawesome - https://fontawesome.com License - https://fontawesome.com/license (Commercial License) Copyright 2023 Fonticons, Inc. --><defs><style>.fa-secondary{opacity:.4}</style></defs><path class="fa-secondary" d="M256 512A256 256 0 1 0 256 0a256 256 0 1 0 0 512zM224 192V320c0 17.7-14.3 32-32 32s-32-14.3-32-32V192c0-17.7 14.3-32 32-32s32 14.3 32 32zm128 0V320c0 17.7-14.3 32-32 32s-32-14.3-32-32V192c0-17.7 14.3-32 32-32s32 14.3 32 32z"/><path class="fa-primary" d="M192 160c17.7 0 32 14.3 32 32V320c0 17.7-14.3 32-32 32s-32-14.3-32-32V192c0-17.7 14.3-32 32-32zm128 0c17.7 0 32 14.3 32 32V320c0 17.7-14.3 32-32 32s-32-14.3-32-32V192c0-17.7 14.3-32 32-32z"/></svg>
